X: 24
T:La Theneuille (1)
R:Bourre  3 temps
C:Elsener
O:France
A:Centre
S:80 airs  danser du centre France - La Chavanne - 1991
S:31
Z:Transcrit et/ou corrig par Michel BELLON - 2005-05-15
Z:Pour toute observation mailto:galouvielle@free.fr
M:3/8
L:1/8
K:Eb
S G |: c>=Bc | def | g2d | c2=B | c>=Bc | def | g2e |1 d2d :|2 d2e |:
dd/2c/2=B/2c/2 | ded | c2=B | cGe | dd/2c/2=B/2c/2 | ded | c2=B |1 c2e :|2 c2 S |]
%%footer $D   Galouvielle-MBe 2005 \nBourre  3 temps France
